static/assets/svg/human/humanClothes/female_skirt2_stickers/female_skirt2_sticker10.svg

<svg class="bottomOverlay" width="86" height="380" viewBox="202.715 584.407 86.59 380.048" xmlns="http://www.w3.org/2000/svg"><g fill="#768199" color="#000" stroke="#000" style="fill:#ff8c00"><path d="M167.376 269.225s180.988 9.545 188.788 13.445c7.81 3.9 37.71 6.5 37.71 6.5s-28.6 3.9-44.21 24.71c-15.6 20.8-29.9 40.3-29.9 40.3l-198.255-4.047" stroke-width="3.29" transform="matrix(.10957 0 0 .11972 201.563 725.228)"/><path d="M345.81 318.36c19.37-27.98 41.61-25.11 48.78-28.7 7.17-3.58 22.96 43.76 7.17 53.09-15.78 9.33-53.8 43.04-53.8 43.04l-.72 1.44" stroke-width="3.29" transform="matrix(.10957 0 0 .11972 201.563 725.228)"/><path d="M475.66 309.75c-7.9-30.13 7.89-37.3-24.4-35.15-32.28 2.15-53.08-2.87-54.52 8.61-1.43 11.48-10.04 66.71 9.33 74.61 19.37 7.89 80.35 38.74 82.5 24.39 2.15-14.35-7.89-19.37-7.89-19.37l-5.02-53.09z" stroke-width="3.29" transform="matrix(.10957 0 0 .11972 201.563 725.228)"/><path d="M661.84 354.433l-148.96 5.657 1.44-82.65 138.845-3.807" stroke-width="3.234" transform="matrix(.10957 0 0 .11972 201.563 725.228)"/><path d="M472.79 288.23s88.24 22.96 84.65 31.56c-3.59 8.61-25.11 61.7-35.87 59.55-10.76-2.15-40.89-10.05-42.33-17.22-1.43-7.17-5.74-73.17-6.45-73.89z" stroke-width="3.29" transform="matrix(.10957 0 0 .11972 201.563 725.228)"/><path d="M550.98 314.05s78.81-8.93 68.87-17.21c-12.91-10.76-62.41-39.46-77.48-35.16-15.06 4.31-60.98 28.7-60.98 28.7l69.59 23.67z" stroke-width="3.29" transform="matrix(.10957 0 0 .11972 201.563 725.228)"/><path d="M637.79 657.17s1.43-316.57-2.15-321.59c-3.59-5.02-1.44-49.5-36.59-38.03-35.15 11.48-47.35 16.5-47.35 16.5s15.78-9.32 17.22 5.74c1.43 15.07-7.02 337.23-7.02 337.23M270.84 694.46s4.63-216.62 2.82-237.51c-2.42-27.98 63.72-134.64 71.52-137.25 7.8-2.6 5.2 375.2 5.2 375.2" stroke-width="3.29" transform="matrix(.10957 0 0 .11972 201.563 725.228)"/></g></svg>

<svg class="bottomOverlay" width="86" height="380" viewBox="202.71499633789062 584.406982421875 86.58999633789062 380.0480041503906" preserveAspectRatio="xMidYMid meet" xmlns="http://www.w3.org/2000/svg">
  <defs id="svgEditorDefs">
    <path id="svgEditorClosePathDefs" class="lines" fill="black" style="stroke-width: 0px; stroke: none;"/>
    <pattern id="pattern-0" x="0" y="0" width="20" height="20" patternUnits="userSpaceOnUse" viewBox="0 0 100 100">
      <g transform="matrix(0.052344, 0, 0, 0.071139, 4.245244, 11.441609)" style="">
        <g id="layer1" transform="translate(1344.9 2676.1)">
          <path id="path3170" style="fill-rule:evenodd;fill:#ffaacc" d="m-295.78-2224.4c-64.85-51.8-177.76 27.8-151.84 122.6 23.57 86.2 102.66 122.8 166.11 177.9 52.45-82.4 154.07-130.5 166.59-231.4 13.59-109.5-112.81-149-180.86-69.1z"/>
          <path id="path3187" style="fill-rule:evenodd;fill:#6600ff" d="m-470.74-2643.5c-94.65-63.3-200.03 11.6-174.11 106.4 23.58 86.2 124.93 138.9 188.37 194.1 52.46-82.4 147.76-104.3 178.74-201.1 31.81-99.4-124.96-179.3-193-99.4z"/>
          <path id="path3189" style="fill-rule:evenodd;fill:#ff2a7f" d="m-927.14-2505.7c-111.26-122-202.26-1.8-132.66 92.1 55.1 74.3 100.38 104.9 144.35 154 43.66-67.8 105.07-104.8 136.43-189.5 38.29-103.5-73.22-168.6-148.12-56.6z"/>
          <path id="path3191" style="fill-rule:evenodd;fill:#ffcc00" d="m-397.27-1751.5c-123.93-165.7-228.96 54.1-174.69 107.9 81.25 80.5 122.95 53.4 185.78 125.7 43.72-70.6 111.66-55.8 168.85-146.8 41.75-66.5-46.79-251.2-179.94-86.8z"/>
          <path id="path3193" style="fill-rule:evenodd;fill:#ff2ad4" d="m-686.52-2200.9c94.64-63.3 177.76 27.8 151.84 122.6-23.58 86.2-102.67 122.7-166.11 177.9-52.46-82.4-154.07-130.5-166.59-231.4-13.6-109.5 112.81-149 180.86-69.1z"/>
          <path id="path3197" style="fill-rule:evenodd;fill:#ff2ad4" d="m-897.7-1767.4c-85.34-207.3-268.7 135 10.89 229.5 261.79-76.2 173.95-427.6-10.89-229.5z"/>
          <path id="path3199" style="fill-rule:evenodd;fill:#d40055" d="m-1150-2098.2c-205.5-183.2-313 101.3 9.5 201.2 266.3-86.3 260.87-384.6-9.5-201.2z"/>
          <path id="path3201" style="fill:#ff0000" d="m46.681-2379.9c27.679-265.5-204.5-142.3-186.91-22 17.54 119.9 115.88 138.5 187.49 200.8 59.21-93 204.29-147.9 188.04-261.2-16.3-113.6-241.15-124.2-188.62 82.4z"/>
          <path id="path3203" style="fill-rule:evenodd;fill:#ff0066" d="m85.85-1958.5c4.235-138.4 214.08-56.2 204.92 46.4-9.69 108.6-166.88 185.8-218.69 243.6-57.477-82.7-136.3-94.4-160.78-223.3-18.87-99.5 172.71-201.4 174.55-66.7z"/>
        </g>
      </g>
    </pattern>
  </defs>
  <g transform="matrix(0.109572, 0, 0, 0.119716, 203.754196, 756.354492)" style="">
    <g id="g-1">
      <g id="g2164" style="fill:#ff8c00" transform="translate(-20,-260)">
        <path id="path2031" style="color: black; stroke: black; stroke-width: 3.29; fill: rgb(118, 129, 153);" d="M 167.376 269.225 C 167.376 269.225 348.364 278.77 356.164 282.67 C 363.974 286.57 393.874 289.17 393.874 289.17 C 393.874 289.17 365.274 293.07 349.664 313.88 C 334.064 334.68 319.764 354.18 319.764 354.18 L 121.509 350.133"/>
        <path id="path3808" style="color: black; stroke: black; stroke-width: 3.29; fill: rgb(118, 129, 153);" d="M 345.81 318.36 C 365.18 290.38 387.42 293.25 394.59 289.66 C 401.76 286.08 417.55 333.42 401.76 342.75 C 385.98 352.08 347.96 385.79 347.96 385.79 L 347.24 387.23"/>
        <path id="path6433" style="color: black; stroke: black; stroke-width: 3.29; fill: rgb(118, 129, 153);" d="M 475.66 309.75 C 467.76 279.62 483.55 272.45 451.26 274.6 C 418.98 276.75 398.18 271.73 396.74 283.21 C 395.31 294.69 386.7 349.92 406.07 357.82 C 425.44 365.71 486.42 396.56 488.57 382.21 C 490.72 367.86 480.68 362.84 480.68 362.84 L 475.66 309.75 L 475.66 309.75 Z"/>
        <path id="path6443" style="color: black; stroke: black; stroke-width: 3.2344; fill: rgb(118, 129, 153);" d="M 661.84 354.433 L 512.88 360.09 L 514.32 277.44 L 653.165 273.633"/>
        <path id="path6437" style="color: black; stroke: black; stroke-width: 3.29; fill: rgb(118, 129, 153);" d="M 472.79 288.23 C 472.79 288.23 561.03 311.19 557.44 319.79 C 553.85 328.4 532.33 381.49 521.57 379.34 C 510.81 377.19 480.68 369.29 479.24 362.12 C 477.81 354.95 473.5 288.95 472.79 288.23 L 472.79 288.23 Z"/>
        <path id="path6439" style="color: black; stroke: black; stroke-width: 3.29; fill: rgb(118, 129, 153);" d="M 550.98 314.05 C 550.98 314.05 629.79 305.12 619.85 296.84 C 606.94 286.08 557.44 257.38 542.37 261.68 C 527.31 265.99 481.39 290.38 481.39 290.38 L 550.98 314.05 L 550.98 314.05 Z"/>
        <path id="path6435" style="color: black; stroke: black; stroke-width: 3.29; fill: rgb(118, 129, 153);" d="M 637.79 657.17 C 637.79 657.17 639.22 340.6 635.64 335.58 C 632.05 330.56 634.2 286.08 599.05 297.55 C 563.9 309.03 551.7 314.05 551.7 314.05 C 551.7 314.05 567.48 304.73 568.92 319.79 C 570.35 334.86 561.9 657.02 561.9 657.02"/>
        <path id="path2933" style="color: black; stroke: black; stroke-width: 3.29; fill: rgb(118, 129, 153);" d="M 270.84 694.46 C 270.84 694.46 275.47 477.84 273.66 456.95 C 271.24 428.97 337.38 322.31 345.18 319.7 C 352.98 317.1 350.38 694.9 350.38 694.9"/>
      </g>
    </g>
  </g>
</svg>
